packages/icons/svg/Instruction_Hygiene_Plexiglas_24px.svg

<svg xmlns="http://www.w3.org/2000/svg" viewBox="0 0 24 24"><path d="M13.75 9.5a.25.25 0 00.5 0 1.25 1.25 0 011.25-1.25.25.25 0 000-.5 1.25 1.25 0 01-1.25-1.25.25.25 0 00-.5 0 1.25 1.25 0 01-1.25 1.25.25.25 0 000 .5 1.25 1.25 0 011.25 1.25zM13.5 13a3.5 3.5 0 013.5 3.5.5.5 0 001 0 3.5 3.5 0 013.5-3.5.5.5 0 000-1A3.5 3.5 0 0118 8.5a.5.5 0 00-1 0 3.5 3.5 0 01-3.5 3.5.5.5 0 000 1zm4-2.44a4.54 4.54 0 001.94 1.94 4.54 4.54 0 00-1.94 1.94 4.54 4.54 0 00-1.94-1.94 4.54 4.54 0 001.94-1.94z"/><path d="M21 2H3a1 1 0 00-1 1v18a1 1 0 001 1h6a1 1 0 001-1v-2h4v2a1 1 0 001 1h6a1 1 0 001-1v-6a1 1 0 00-2 0v5h-4v-2a1 1 0 00-1-1H9a1 1 0 00-1 1v2H4V4h16v6a1 1 0 002 0V3a1 1 0 00-1-1z"/><path d="M5.5 8a.47.47 0 00.35-.15l2-2a.49.49 0 00-.7-.7l-2 2a.48.48 0 000 .7.47.47 0 00.35.15zM5.15 10.85a.48.48 0 00.7 0l5-5a.49.49 0 00-.7-.7l-5 5a.48.48 0 000 .7z"/></svg>

<svg xmlns="http://www.w3.org/2000/svg" viewBox="0 0 24 24"><defs></defs><g id="Icon"><path  d="M13.75,9.5a.25.25,0,0,0,.5,0A1.25,1.25,0,0,1,15.5,8.25a.25.25,0,0,0,0-.5A1.25,1.25,0,0,1,14.25,6.5a.25.25,0,0,0-.5,0A1.25,1.25,0,0,1,12.5,7.75a.25.25,0,0,0,0,.5A1.25,1.25,0,0,1,13.75,9.5Z"/><path  d="M13.5,13A3.5,3.5,0,0,1,17,16.5a.5.5,0,0,0,1,0A3.5,3.5,0,0,1,21.5,13a.5.5,0,0,0,0-1A3.5,3.5,0,0,1,18,8.5a.5.5,0,0,0-1,0A3.5,3.5,0,0,1,13.5,12a.5.5,0,0,0,0,1Zm4-2.44a4.54,4.54,0,0,0,1.94,1.94,4.54,4.54,0,0,0-1.94,1.94,4.54,4.54,0,0,0-1.94-1.94A4.54,4.54,0,0,0,17.5,10.56Z"/><path  d="M21,2H3A1,1,0,0,0,2,3V21a1,1,0,0,0,1,1H9a1,1,0,0,0,1-1V19h4v2a1,1,0,0,0,1,1h6a1,1,0,0,0,1-1V15a1,1,0,0,0-2,0v5H16V18a1,1,0,0,0-1-1H9a1,1,0,0,0-1,1v2H4V4H20v6a1,1,0,0,0,2,0V3A1,1,0,0,0,21,2Z"/><path  d="M5.5,8a.47.47,0,0,0,.35-.15l2-2a.49.49,0,0,0-.7-.7l-2,2a.48.48,0,0,0,0,.7A.47.47,0,0,0,5.5,8Z"/><path  d="M5.15,10.85a.48.48,0,0,0,.7,0l5-5a.49.49,0,0,0-.7-.7l-5,5A.48.48,0,0,0,5.15,10.85Z"/></g></svg>
